X:124
T:Farm House, The
M:9/8
L:1/8
B:Thompson's Compleat Collection of 200 Favourite Country Dances, vol. 3 (London, 1773)
Z:Transcribed and edited by Flynn Titford-Mock, 2007
Z:abc's:AK/Fiddler's Companion
K:F
f3a f gec | d3 f2d ecA | B3 d2B cef | cBA BAG F3::G3 E2F GE[Cc] | c3 A2B cAF |
def gab efg | fed A=B^c d3 | f3 c2A dBG | BABDEF GE[Cc] | FGA Bcd efg | agf cde f3 :|

